X: 1
T: G\aangl\aat efter Mattias Blom
O: H\"alsingland
R: Snoa, g\aangl\aat
D: "The Dancing Bow", SONET SNTD-201
N: from transcription by Bill Boyd
M: 2/4
L: 1/16
K: G
D2 \
| "G"G2FG "D"A2GA | "G"{A}B2AB "C"{B}c2BA \
|1,3 "G"G2FG "D"A2FA | "G"D2d2 B2 \
:|2,4 "G"G2FG "D"A2D2 | "G"{F}G6 :|
B2 \
|: "G"{B}d3B G2~G2 | "D"FAD2 FAD2 \
| "D7"{A}c3A F2D{E}F |1,3 "G"G2A2 B2c2 :|2,4 "G"G6 :|
